X: 805
T: Farewell to Ireland
C: anon.
O: Ireland
B: Francis O'Neill: "The Dance Music of Ireland" (1907) no. 805
R: Reel
Z: Transcribed by Frank Nordberg - http://www.musicaviva.com
F: http://www.musicaviva.com/abc/tunes/ireland/oneill-1001/oneill-1001-080
5.abc
m: Tn = (3n/o/n/
m: Tn3 = n(3n/o/n/ m/n/
M: C|
L: 1/8
K: Amix
B,|TA,3(B, ED)EF|GED(B, G,B,D)B,|A,G, (3A,B,C D2 (AF)|GEDB, ETA,-A,2|\
(A,G,A,C) E2(EF)|GED(B, DG,)G,g|ed (3efg abaf|(3gfe df eAA||
g|a2 (ab) agef|ga (3gfe dB(Gg)|a(gab) aged|g(edB) (3AAA (Ag)|\
age(f g2)fe|d(edB) GABd|(3cBA (3dcB ecA(a|g)edB BAA||
d|eA (3AAA (ed)ce|dG (3GGG (BG)Bd|e(Acd) edBa|(3gfe dB A(Bcd)|\
eA (3AAA (ed)ce|d(edB) GABd|(3cBA (3dcB ecA(a|(3g)fe dB BAA|]
W:
W:
W: From Musica Viva - http://www.musicaviva.com
W: the Internet center for free sheet music downloads.


